!!!SOCIAL_FUNCTION:	dream songs
!!!PDT:	1929
!!!OTL: No_159_I_Sat_Under_Santa_Rita_Mountains.krn
!!!REG: Southwest
!!!LANG: Non-Tone
!!!LING_GROUP: Uto-Aztecan
**kern
*staff1
=1-
*clefF4
*k[b-e-a-d-g-]
*M3/4
2f\
4e-\
=2
2d-\
4B-\
=3||
*M2/4
4A-\
8A-\
8r
=4
4f\
8.f\L
16d-\Jk
=5
4d-\
4f\
=6||
*M3/4
4e-\
4d-\
4A-\
=7
2.B-\
=8||
*M2/4
4F\
8B-\L
8B-\J
=9||
*M3/4
4B-\
4A-\
8F\L
8F\J
=10
4E-\
4E-\
8.r
16A-\
=11||
*M2/4
4A-\
4B-\
=12
4B-\
16A-\LK
8.F\J
=13||
*M3/4
2.A-\
=14
8A-\L
8A-\J
4A-\
4E-\
=15||
*M2/4
8B-\L
8B-\J
4B-\
=16
4A-\
4F\
=17
8B-\L
8B-\J
4B-\
=18
4A-\
8B-\L
8B-\J
=19||
*M3/4
4B-\
4A-\
8F\L
8E-\J
=20||
*M2/4
2A-\
=21
4A-\
4r
==
*-
